X:1
T:Title
%%score { ( 1 3 4 ) | 2 }
L:1/8
M:6/8
K:F
V:1 treble nm="Grand Piano"
V:3 treble 
V:4 treble 
V:2 bass 
V:1
 z3 z2[Q:1/4=90] C | C2 F F2 G | A2 [GB] [Ac]2 c | c2 d c2 [EG] |[M:5/8] A-A- A3 |[M:1/8] C | %6
[M:3/4] C2 F F2 G | A2 [GB] [Ac]2 A | G2 A G2 A |[M:5/8] [EG]-[EG]- [EG]3 |[M:1/8] C | %11
[M:3/4] C2 F F2 G | A2 [GB] [Ac]2 c | =B2 B c2 d |[M:5/8] [Ge]-[Ge]- [Ge]3 |[M:1/8] [Ge] | %16
[M:3/4] [Ff]2 [Fc] [Ge]2 [Fd] |[M:7/8] [Fc]2 [G^c] [Fd]3 [Fd] |[M:3/4] [Fc]2 [Fc] [EB]2 [EG] | F6 | %20
 z2 z2 GA | c2 c c3 | z2 z D AB | d2 d d3 | [Ge]3 [Ge] [Gd][Ge] | [Ff]2 [Fc] [Ge]2 [Fd] | %26
 [Fc]2 [GB] [FA]2 [EG] |[M:5/8] F-F- F3 |] %28
V:2
 z3 z2 [F,A,] | [F,A,]2 [F,A,C] [F,A,C]2 [F,B,E] | [F,CF]2 [F,C][K:treble] [F,F]2 [A,CF] | %3
 [B,CE]2 [B,CE] [G,CE]2[K:bass] [C,C] |[M:5/8] [F,CF]-[F,CF]- [F,CF]3 |[M:1/8] [F,A,] | %6
[M:3/4] [F,A,]2 [F,A,C] [F,A,C]2 [F,B,E] | [F,CF]2 [F,C][K:treble] [F,F]2 [F,CF] | %8
 [G,CE]2 [G,CE] [G,=B,F]2 [G,B,F] |[M:5/8][K:bass] [C,B,]-[C,B,]- [C,B,]3 |[M:1/8] [F,A,] | %11
[M:3/4] [F,A,]2 [F,A,C] [F,A,C]2 [F,B,E] | [F,CF]2 [F,C][K:treble] [F,F]2 [A,CF] | %13
 [G,DF]2 [G,DF] [G,CE]2 [G,=B,F] |[M:5/8][K:bass] [C,B,]-[C,B,]- [C,B,]3 |[M:1/8] [C,B,] | %16
[M:3/4] [F,A,]2 [F,A,] [B,,B,]2 [B,,B,] |[M:7/8] [F,A,]2 [E,A,] [D,A,]3 [B,,B,] | %18
[M:3/4] [C,A,]2 [C,A,] [C,G,]2 [C,B,] | [F,A,]6 | [F,A,C]2 z [F,A,]2 [F,CF] | %21
 [F,A,F]2 [F,A,F] [F,A,F]3 | [G,B,D]2 z [G,B,]2[K:treble] [G,DG] | [G,B,G]2 [G,B,G] [G,B,G]3 | %24
 [C,C]3 [C,B,] [C,B,][C,B,] | [F,A,]2 [F,A,] [B,,B,]2 [B,,B,] | [C,A,]2 [C,C] [C,C]2 [C,B,] | %27
[M:5/8] [F,A,]-[F,A,]- [F,A,]3 |] %28
V:3
 x6 | x6 | x6 | x6 |[M:5/8] x5 |[M:1/8] x |[M:3/4] x6 | x6 | x6 |[M:5/8] x5 |[M:1/8] x | %11
[M:3/4] x6 | x6 | x6 |[M:5/8] x5 |[M:1/8] x |[M:3/4] x6 |[M:7/8] x7 |[M:3/4] x6 | x6 | F4 z2 | x6 | %22
 G4 z2 | x6 | x6 | x6 | x6 |[M:5/8] x5 |] %28
V:4
 x6 | x6 | x6 | x6 |[M:5/8] x5 |[M:1/8] x |[M:3/4] x6 | x6 | x6 |[M:5/8] x5 |[M:1/8] x | %11
[M:3/4] x6 | x6 | x6 |[M:5/8] x5 |[M:1/8] x |[M:3/4] x6 |[M:7/8] x7 |[M:3/4] x6 | x6 | z2 z .C3 | %21
 x6 | x6 | x6 | x6 | x6 | x6 |[M:5/8] x5 |] %28

